X: 20601
M: C|
L: 1/8
K: G
(Bd)BG (Ac)AF | GBcd efga | bgfg fed^c | d2d>d d2 :|
|: d2 |\
a2aa ac'ba | g2gg gbag | fedg fedc | B2AA A2(d/c/B/A/) |\
|: "^Bugle."(dc) |\
d4 c4 | B4 ABcd | (ec)(cA) (AG)(GF) | A4 G2 :|
|: g2 |\
f2a>a f2z2 | g2b>b g2z2 | GBcd efga | g4 {ag}fedc |\


